src/main/webapp/scripts/pdfjs/v54530/web/images/toolbarButton-print.svg

<svg fill="none" height="16" viewBox="0 0 16 16" width="16" xmlns="http://www.w3.org/2000/svg"><path d="m13 4h-1v-2c0-.53043-.2107-1.039141-.5858-1.414214-.3751-.375072-.8838-.585786-1.4142-.585786h-4c-.53043 0-1.03914.210714-1.41421.585786-.37508.375073-.58579.883784-.58579 1.414214v2h-1c-.53043 0-1.03914.21071-1.41421.58579-.37508.37507-.58579.88378-.58579 1.41421v5c0 .5304.21071 1.0391.58579 1.4142.37507.3751.88378.5858 1.41421.5858h1v1c0 .5304.21071 1.0391.58579 1.4142.37507.3751.88378.5858 1.41421.5858h4c.5304 0 1.0391-.2107 1.4142-.5858s.5858-.8838.5858-1.4142v-1h1c.5304 0 1.0391-.2107 1.4142-.5858s.5858-.8838.5858-1.4142v-5c0-.53043-.2107-1.03914-.5858-1.41421-.3751-.37508-.8838-.58579-1.4142-.58579zm-2.25 10.15-.6.6h-4.3l-.6-.6v-4.15h5.5zm0-10.15h-5.5v-2.15l.6-.6h4.3l.6.6zm2.25 3.6-.4.4h-1.2l-.4-.4v-1.2l.4-.4h1.2l.4.4z" fill="#000"/></svg>

<svg width="16" height="16" viewBox="0 0 16 16" fill="none" xmlns="http://www.w3.org/2000/svg">
<path d="M13 4H12V2C12 1.46957 11.7893 0.960859 11.4142 0.585786C11.0391 0.210714 10.5304 0 10 0L6 0C5.46957 0 4.96086 0.210714 4.58579 0.585786C4.21071 0.960859 4 1.46957 4 2V4H3C2.46957 4 1.96086 4.21071 1.58579 4.58579C1.21071 4.96086 1 5.46957 1 6V11C1 11.5304 1.21071 12.0391 1.58579 12.4142C1.96086 12.7893 2.46957 13 3 13H4V14C4 14.5304 4.21071 15.0391 4.58579 15.4142C4.96086 15.7893 5.46957 16 6 16H10C10.5304 16 11.0391 15.7893 11.4142 15.4142C11.7893 15.0391 12 14.5304 12 14V13H13C13.5304 13 14.0391 12.7893 14.4142 12.4142C14.7893 12.0391 15 11.5304 15 11V6C15 5.46957 14.7893 4.96086 14.4142 4.58579C14.0391 4.21071 13.5304 4 13 4V4ZM10.75 14.15L10.15 14.75H5.85L5.25 14.15V10H10.75V14.15ZM10.75 4H5.25V1.85L5.85 1.25H10.15L10.75 1.85V4V4ZM13 7.6L12.6 8H11.4L11 7.6V6.4L11.4 6H12.6L13 6.4V7.6Z" fill="black"/>
</svg>
